libs/ui/packages/crypto-icons/src/svg/USDA.svg

<svg width="24" height="24" viewBox="0 0 24 24" fill="none" xmlns="http://www.w3.org/2000/svg">
<path fill-rule="evenodd" clip-rule="evenodd" d="M12 24C18.6274 24 24 18.6274 24 12C24 5.37258 18.6274 0 12 0C5.37258 0 0 5.37258 0 12C0 18.6274 5.37258 24 12 24ZM18.5303 10.3087L12.0003 3.64062L5.46967 10.3087L8.73468 13.6424L12.0003 10.3087L15.2653 13.6424L18.5303 10.3087ZM6.06904 19.1029C6.20288 19.3381 6.39386 19.5206 6.63958 19.6495L6.64129 19.6504C6.89121 19.7753 7.18553 19.8358 7.5209 19.8358C7.85621 19.8358 8.14949 19.7751 8.396 19.6498C8.64564 19.521 8.83724 19.3382 8.96762 19.102C9.10134 18.8628 9.16632 18.5841 9.16632 18.2694V15.6078H8.22415V18.292C8.22415 18.513 8.16092 18.6758 8.04408 18.7926L8.04314 18.7936C7.93178 18.908 7.7633 18.9727 7.5209 18.9727C7.27901 18.9727 7.10802 18.9083 6.99255 18.7931C6.87929 18.6764 6.81766 18.5134 6.81766 18.292V15.6078H5.87549V18.2694C5.87549 18.5838 5.93842 18.8621 6.06805 19.1011L6.06904 19.1029ZM11.229 18.1151H10.2981V18.3716C10.2981 18.6732 10.3677 18.9372 10.5116 19.1591C10.654 19.3789 10.8512 19.5469 11.1001 19.6634C11.3487 19.7796 11.6325 19.8364 11.9492 19.8364C12.2648 19.8364 12.5435 19.7835 12.7812 19.6747C13.0208 19.5629 13.2088 19.409 13.3407 19.2114C13.4768 19.0093 13.5438 18.7772 13.5438 18.5184C13.5438 18.2614 13.4813 18.0415 13.3488 17.8662C13.2204 17.6964 13.0424 17.5628 12.8196 17.4632C12.6047 17.3656 12.353 17.2865 12.0657 17.2252L11.9359 17.197C11.7818 17.164 11.659 17.1262 11.5657 17.0847C11.4755 17.0446 11.4133 16.9975 11.3731 16.9463C11.3389 16.8983 11.3193 16.837 11.3193 16.7569C11.3193 16.637 11.361 16.5519 11.4401 16.4897C11.524 16.4232 11.665 16.3811 11.8814 16.3811C12.0225 16.3811 12.1389 16.4024 12.2333 16.4414L12.2361 16.4425C12.326 16.4766 12.3906 16.5305 12.4349 16.6044L12.4375 16.6083C12.4835 16.6773 12.5113 16.7766 12.5113 16.915V17.1828H13.4422V16.915C13.4422 16.6147 13.375 16.3573 13.2338 16.1492C13.0985 15.9405 12.91 15.7855 12.6717 15.6843C12.4389 15.5801 12.1748 15.5293 11.8814 15.5293C11.5885 15.5293 11.3279 15.5781 11.1021 15.6788C10.8795 15.776 10.7023 15.9197 10.5744 16.1095C10.4488 16.2978 10.3885 16.5228 10.3885 16.7795C10.3885 17.0337 10.4421 17.2504 10.5577 17.4218L10.5587 17.4231C10.6751 17.5894 10.8376 17.7219 11.042 17.8221L11.0441 17.823C11.2477 17.917 11.4885 17.9944 11.7645 18.0557L11.8942 18.0839C12.0603 18.1208 12.1982 18.161 12.3088 18.2038L12.3124 18.205C12.423 18.243 12.4964 18.2901 12.5418 18.3411L12.5438 18.3433C12.5876 18.3896 12.6129 18.4524 12.6129 18.541C12.6129 18.6679 12.5635 18.7698 12.4582 18.8534L12.4571 18.8544C12.3582 18.9352 12.1951 18.9845 11.9492 18.9845C11.712 18.9845 11.5368 18.9298 11.4126 18.8314C11.2945 18.7342 11.229 18.5869 11.229 18.3716V18.1151ZM14.6756 18.9049V19.7567H16.4C16.9464 19.7567 17.3776 19.6191 17.6769 19.328C17.9806 19.0325 18.1245 18.6022 18.1245 18.0549V17.3096C18.1245 16.7627 17.9808 16.334 17.6769 16.0421C17.3777 15.7474 16.9464 15.6078 16.4 15.6078H14.6756V16.4596H15.195V18.9049H14.6756ZM16.4113 16.4822C16.6966 16.4822 16.8843 16.5569 16.998 16.6859L16.9988 16.6868C17.1162 16.817 17.1823 17.012 17.1823 17.287V18.0775C17.1823 18.3482 17.1165 18.544 16.998 18.6786C16.8843 18.8076 16.6966 18.8823 16.4113 18.8823H16.1372V16.4822H16.4113Z" fill="#87DCC9"/>
</svg>

<svg xmlns="http://www.w3.org/2000/svg" width="24" height="24" viewBox="0 0 24 24" fill="none"><path fill="#87dcc9" fill-rule="evenodd" d="M12 24c6.627 0 12-5.373 12-12S18.627 0 12 0 0 5.373 0 12s5.373 12 12 12m6.53-13.691L12 3.64l-6.53 6.668 3.265 3.333L12 10.31l3.265 3.333zM6.07 19.103q.202.353.57.546l.002.001q.376.187.88.186.503.002.875-.186.375-.194.572-.548a1.7 1.7 0 0 0 .198-.833v-2.661h-.942v2.684c0 .221-.063.384-.18.5v.002c-.112.114-.28.179-.523.179-.242 0-.413-.065-.528-.18-.114-.117-.175-.28-.175-.501v-2.684h-.943v2.661q-.001.473.193.832zm5.16-.988h-.93v.257q-.001.453.213.787.214.33.588.504t.85.173q.474.001.831-.161a1.33 1.33 0 0 0 .56-.464q.203-.304.203-.693.002-.387-.195-.652a1.3 1.3 0 0 0-.53-.403 3.7 3.7 0 0 0-.753-.238l-.13-.028a2 2 0 0 1-.37-.112.5.5 0 0 1-.193-.139.3.3 0 0 1-.054-.19c0-.119.042-.204.121-.266.084-.067.225-.109.441-.109a.9.9 0 0 1 .352.06l.003.002q.134.05.199.161l.002.004a.55.55 0 0 1 .074.307v.268h.931v-.268c0-.3-.067-.558-.208-.766a1.2 1.2 0 0 0-.562-.465 1.9 1.9 0 0 0-.79-.155q-.44 0-.78.15a1.2 1.2 0 0 0-.528.43 1.2 1.2 0 0 0-.185.67c0 .255.053.471.169.643v.001q.177.249.484.4h.002q.306.14.72.233l.13.028q.249.056.415.12l.003.001a.54.54 0 0 1 .23.136l.002.002c.044.047.069.11.069.198q.001.189-.155.312v.001c-.1.081-.263.13-.509.13-.237 0-.412-.054-.536-.153-.119-.097-.184-.244-.184-.46zm3.447.79v.852H16.4c.546 0 .978-.138 1.277-.429.304-.296.448-.726.448-1.273v-.745c0-.547-.144-.976-.448-1.268-.3-.295-.73-.434-1.277-.434h-1.724v.852h.519v2.445zm1.735-2.423c.286 0 .473.075.587.204.118.131.184.326.184.601v.79c0 .271-.066.467-.184.602-.114.129-.301.203-.587.203h-.274v-2.4z" clip-rule="evenodd"/></svg>
